static/assets/img/icons/theme/code/right-circle.svg

<svg height="24" viewBox="0 0 24 24" width="24" xmlns="http://www.w3.org/2000/svg"><g fill="none" fill-rule="evenodd"><path d="m0 0h24v24h-24z" opacity="0"/><g fill="#000"><circle cx="12" cy="12" opacity=".3" r="10"/><path d="m7.96323356 15.1775211c-.33473503.334735-.87744774.334735-1.21218277 0-.33473503-.3347351-.33473503-.8774478 0-1.2121828l5.14285591-5.14285596c.3244962-.32449615.8469987-.33584954 1.1852838-.02575487l5.142856 4.71428463c.3489591.3198791.372533.8620796.0526539 1.2110387-.3198792.348959-.8620797.372533-1.2110387.0526538l-4.5378844-4.1597273z" fill-rule="nonzero" transform="matrix(0 1 -1 0 24.500002 -.5)"/></g></g></svg>

<svg width="24px" height="24px" viewBox="0 0 24 24" version="1.1" xmlns="http://www.w3.org/2000/svg" xmlns:xlink="http://www.w3.org/1999/xlink">
    <title>Icon For Right-circle</title>
    <g stroke="none" stroke-width="1" fill="none" fill-rule="evenodd">
        <rect opacity="0" x="0" y="0" width="24" height="24"></rect>
        <circle fill="#000000" opacity="0.3" cx="12" cy="12" r="10"></circle>
        <path d="M7.96323356,15.1775211 C7.62849853,15.5122561 7.08578582,15.5122561 6.75105079,15.1775211 C6.41631576,14.842786 6.41631576,14.3000733 6.75105079,13.9653383 L11.8939067,8.82248234 C12.2184029,8.49798619 12.7409054,8.4866328 13.0791905,8.79672747 L18.2220465,13.5110121 C18.5710056,13.8308912 18.5945795,14.3730917 18.2747004,14.7220508 C17.9548212,15.0710098 17.4126207,15.0945838 17.0636617,14.7747046 L12.5257773,10.6149773 L7.96323356,15.1775211 Z" fill="#000000" fill-rule="nonzero" transform="translate(12.500001, 12.000001) rotate(-270.000000) translate(-12.500001, -12.000001) "></path>
    </g>
</svg>
